!!!COM: Hensel, Fanny
!!!CDT: 1805/11/14-1847/05/14
!!!LYR: Eichendorff von, Joseph
!!!OTL: Lockung
!!!OPS: 3
!!!ONM: 1
**kern	**dynam	**kern	**dynam	**kern	**dynam	**kern	**dynam	**text
*part4	*part4	*part3	*part3	*part2	*part2	*part1	*part1	*
*staff4	*	*staff3	*	*staff2	*	*staff1	*	*
*I"Bass	*	*I"Tenor	*	*I"Alt	*	*I"Sopran	*	*
*clefF4	*	*clefGv2	*	*clefG2	*	*clefG2	*	*
*k[f#c#g#d#a#]	*	*k[f#c#g#d#a#]	*	*k[f#c#g#d#a#]	*	*k[f#c#g#d#a#]	*	*
*B:	*	*B:	*	*B:	*	*B:	*	*
*M4/4	*	*M4/4	*	*M4/4	*	*M4/4	*	*M4/4
*met(c)	*	*met(c)	*	*met(c)	*	*met(c)	*	*
=	=	=	=	=	=	=	=	=
4.B	p	4.d#	p	4.f#	p	4.dd#	p	0
8B	.	8d#	.	8f#	.	8ee	.	1.5
=1	=1	=1	=1	=1	=1	=1	=1	=1
4A#	.	4c#	.	4f#	.	4ff#	.	2
4A#	.	4d#	.	4f#	.	4dd#	.	3
4.G#	.	4.d#	.	4.f#	.	4.b	.	4
8G#	.	8c#	.	8e#X	.	8cc#	.	5.5
=2	=2	=2	=2	=2	=2	=2	=2	=2
4F#	.	4d#	.	4f#	.	4b	.	6
4F#	.	4c#	.	4f#	.	4a#	.	7
4E	.	4c#	.	4f#	.	4a#	.	8
4E	.	(8BL	.	4f#	.	8g#L	.	9
.	.	8A#J)	.	.	.	8f#J	.	9.5
=3	=3	=3	=3	=3	=3	=3	=3	=3
4D#	.	4B	.	4f#	.	4f#	.	10
4D#	.	4B	.	4f#	.	4b	.	11
4C#	.	4A#	.	4f#	.	4cc#	.	12
4BB	.	4B	.	4f#	.	4dd#	.	13
=4	=4	=4	=4	=4	=4	=4	=4	=4
!	!LO:DY:a	!	!LO:DY:a	!	!LO:DY:a	!	!LO:DY:a	!
2AA#	<	2c#	<	2f#	<	2ee	<	14
4.B	.	4.d#	.	4.f#	.	4.dd#	.	16
8B	[	8d#	[	8f#	[	8ee	[	17.5
=5	=5	=5	=5	=5	=5	=5	=5	=5
4A#	.	4c#	.	4f#	.	4ff#	.	18
!	!LO:DY:a	!	!LO:DY:a	!	!LO:DY:a	!	!LO:DY:a	!
4A#	p	4d#	p	4f#	p	4dd#	p	19
4.G#	.	4.d#	.	4.f#	.	4.b	.	20
8G#	.	8c#	.	8e#X	.	8cc#	.	21.5
=6	=6	=6	=6	=6	=6	=6	=6	=6
4F#	.	4d#	.	4f#	.	4b	.	22
4F#	.	4c#	.	4f#	.	4a#	.	23
!	!	!	!LO:DY:a	!	!	!	!LO:DY:a	!
*g#:	*	*g#:	*	*g#:	*	*g#:	*	*
4E	<	4c#	<	4f#	<	4a#	<	24
4E	[	4c#	[	4f#	[[	4a#	[[	25
=7	=7	=7	=7	=7	=7	=7	=7	=7
4.D#	.	4.A#	.	4.f##X	.	4.dd#	.	26
8D#	.	8A#	.	8f##	.	8cc#	.	27.5
4D#	.	4d#	.	4f##	.	4b	.	28
!	!LO:DY:a	!	!LO:DY:a	!	!LO:DY:a	!	!LO:DY:a	!
4D#	>	4c#	>	4f##	>	4a#	>	29
=8	=8	=8	=8	=8	=8	=8	=8	=8
2G#	]	2B	]	2g#	]	2b	]	30
2r	.	2r	.	2r	.	4.dd#	.	32
.	.	.	.	.	.	8dd#	.	33.5
=9	=9	=9	=9	=9	=9	=9	=9	=9
1r	.	1r	.	1r	.	4cc#	.	34
.	.	.	.	.	.	4b	.	35
.	.	.	.	.	.	4a#	.	36
.	.	.	.	.	.	8bL	.	37
.	.	.	.	.	.	8g#J	.	37.5
=10	=10	=10	=10	=10	=10	=10	=10	=10
*F#:	*	*F#:	*	*F#:	*	*F#:	*	*
1BB	.	(2G#	.	1c#	.	4f#	.	38
.	.	.	.	.	.	4e#X	.	39
.	.	2E#X)	.	.	.	8g#L	.	40
.	.	.	.	.	.	8e#J	.	40.5
.	.	.	.	.	.	8d#L	.	41
.	.	.	.	.	.	8c#J	.	41.5
=11	=11	=11	=11	=11	=11	=11	=11	=11
4AA#	.	4F#	.	4c#	.	(2f#	.	42
4AA#	.	4c#	.	4e	.	.	.	43
4BB	.	4B	.	4d#	.	[2ff#)	.	44
4BB	.	4B	.	4dn	.	.	.	45
=12	=12	=12	=12	=12	=12	=12	=12	=12
2C#	.	2A#	.	2c#	.	4ff#]	.	46
.	.	.	.	.	.	4f#	.	47
2C#	.	4.B	.	2e#X	.	4.g#	.	48
.	.	8c#	.	.	.	8a#	.	49.5
=13	=13	=13	=13	=13	=13	=13	=13	=13
2.FF# 2.F#	.	2B	.	(2e#X	.	(2g#	.	50
.	.	4A#	.	4f#)	.	4f#)	.	52
4r	.	4r	.	4ryy	.	4r	.	53
=14	=14	=14	=14	=14	=14	=14	=14	=14
*B:	*	*B:	*	*B:	*	*B:	*	*
8B	pp	8B	pp	8dn	pp	8f#	pp	54
8B	.	8B	.	8d	.	8f#	.	54.5
.	.	.	.	.	.	8qan/	.	55
8B	.	8B	.	8d	.	8gn	.	55
8B	.	8B	.	8d	.	8f#	.	55.5
4An	.	4An	.	4c#	.	4f#	.	56
4A	.	4A	.	4c#	.	4f#	.	57
=15	=15	=15	=15	=15	=15	=15	=15	=15
2Gn	.	2B	.	2e#X	.	2b	.	58
4F#	.	4c#	.	4f#	.	4a#	.	60
!	!LO:DY:a	!	!LO:DY:a	!	!LO:DY:a	!	!LO:DY:a	!
4r	>	4r	>	4r	>	4r	>	61
=16	=16	=16	=16	=16	=16	=16	=16	=16
8B	.	8B	.	8dn	.	8f#	.	62
8B	.	8B	.	8d	.	8f#	.	62.5
.	.	.	.	.	.	8qan/	]	63
8B	]	8B	]	8d	]	8gn	.	63
8B	.	8B	.	8d	.	8f#	.	63.5
*D:	*	*D:	*	*D:	*	*D:	*	*
4B-X	.	4dn	.	4gn	.	4ddn	.	64
4B-	.	4d	.	4g#X	.	4dd	.	65
=17	=17	=17	=17	=17	=17	=17	=17	=17
!	!LO:DY:a	!	!LO:DY:a	!	!LO:DY:a	!	!LO:DY:a	!
2.An	<	(2f#	<	2.an	<	(2ddn	<	66
.	.	4e)	.	.	.	4cc#)	.	68
4r	.	4r	[	4r	[	4r	[	69
=18	=18	=18	=18	=18	=18	=18	=18	=18
8C#	[	8e	.	8gn	.	8an	.	70
8C#	.	8e	.	8g	.	8a	.	70.5
.	.	.	.	.	.	8qcc#/	.	71
8C#	.	8e	.	8g	.	8b	.	71
8C#	.	8e	.	8g	.	8a	.	71.5
4Dn	.	4An	.	4f#	.	4a	.	72
!	!LO:DY:a	!	!LO:DY:a	!	!LO:DY:a	!	!LO:DY:a	!
4D	<	4A	<	4f#	<	4a	<	73
=19	=19	=19	=19	=19	=19	=19	=19	=19
2BB	[	2dn	[	2g#X	[	2ff#	[	74
4C#	.	4c#	.	4g#	.	4ee#X	.	76
8.B	mf	8.c#	mf	8.e#X	mf	8.cc#	mf	77
16B	.	16c#	.	16e#	.	16cc#	.	77.75
=20	=20	=20	=20	=20	=20	=20	=20	=20
4.An	.	4.c#	.	4.f#	.	4.ff#	.	78
8A	.	8c#	.	8f#	.	8cc#	.	79.5
4A	.	4c#	.	4f#	.	4cc#	.	80
*B:	*	*B:	*	*B:	*	*B:	*	*
4A	.	4cn	.	4f#	.	4dd#	.	81
=21	=21	=21	=21	=21	=21	=21	=21	=21
2.G#	.	2B	.	2e	.	2.ee	.	82
.	.	4r	.	4r	.	.	.	84
8.G#	p	8.B	p	8.e	p	8.b	p	85
16G#	.	16B	.	32e	.	16cc#	.	85.75
.	.	.	.	32ryy	.	.	.	85.875
=22	=22	=22	=22	=22	=22	=22	=22	=22
4.F#	.	4.B	.	4.d#	.	4.dd#	.	86
8F#	.	8B	.	8d#	.	8cc#	.	87.5
4F#	.	4c#	.	4e	.	4b	.	88
4F#	.	4c#	.	4e	.	4a#	.	89
=23	=23	=23	=23	=23	=23	=23	=23	=23
[1B	.	4B	.	4d#	.	[1b	.	90
.	.	4d#	.	4f#	.	.	.	91
.	.	4.e	.	4.gn	.	.	.	92
.	.	8d#	.	8f#	.	.	.	93.5
=24	=24	=24	=24	=24	=24	=24	=24	=24
1B_	.	(1c#	.	(1e	.	4b]	.	94
.	.	.	.	.	.	4a#	.	95
.	.	.	.	.	.	4.ee	.	96
.	.	.	.	.	.	8a#	.	97.5
=25	=25	=25	=25	=25	=25	=25	=25	=25
2B;]	.	2d#;)	.	2f#;)	.	2b;	.	98
4.B	.	4.d#	.	4.f#	.	4.dd#	.	100
8B	.	8d#	.	8f#	.	8ee	.	101.5
=26	=26	=26	=26	=26	=26	=26	=26	=26
4A#	.	4c#	.	4f#	.	4ff#	.	102
4A#	.	4d#	.	4f#	.	4dd#	.	103
4.G#	.	4.d#	.	4.f#	.	4.b	.	104
8G#	.	8c#	.	8e#X	.	8cc#	.	105.5
=27	=27	=27	=27	=27	=27	=27	=27	=27
4F#	.	4d#	.	4f#	.	4b	.	106
4F#	.	4c#	.	4f#	.	4a#	.	107
4E	.	4c#	.	4f#	.	4a#	.	108
4E	.	8BL	.	4f#	.	8g#L	.	109
.	.	8A#J	.	.	.	8f#J	.	109.5
=28	=28	=28	=28	=28	=28	=28	=28	=28
!	!LO:DY:a	!	!	!	!LO:DY:a	!	!LO:DY:a	!
4D#	<	4B	<	4f#	<	4f#	<	110
4D#	.	4B	.	4f#	.	4b	.	111
4C#	.	4A#	.	4f#	.	4cc#	.	112
4BB	[	4B	[	4f#	[	4dd#	[	113
=29	=29	=29	=29	=29	=29	=29	=29	=29
2AA#	.	2c#	.	2f#	.	2ee	.	114
4.B	.	4.d#	.	4.f#	.	4.dd#	.	116
8B	.	8d#	.	8f#	.	8ee	.	117.5
=30	=30	=30	=30	=30	=30	=30	=30	=30
4A#	.	4c#	.	4f#	.	4ff#	.	118
4A#	.	4d#	.	4f#	.	4dd#	.	119
4.G#	.	4.d#	.	4.f#	.	4.b	.	120
8G#	.	8c#	.	8e#X	.	8cc#	.	121.5
=31	=31	=31	=31	=31	=31	=31	=31	=31
4F#	.	4d#	.	4f#	.	4b	.	122
4F#	.	4c#	.	4f#	.	4a#	.	123
4E	.	4c#	.	4f#	.	4a#	.	124
4E	.	4c#	.	4f#	.	4a#	.	125
=32	=32	=32	=32	=32	=32	=32	=32	=32
*g#:	*	*g#:	*	*g#:	*	*g#:	*	*
4.D#	.	4.A#	.	4.f##X	.	4.dd#	.	126
!	!LO:DY:a	!	!LO:DY:a	!	!LO:DY:a	!	!LO:DY:a	!
8D#	<	8A#	<	8f##	<	8cc#	<	127.5
4D#	.	4d#	.	4f##	.	4b	.	128
4D#	[	4c#	[	4f##	[	4a#	[	129
=33	=33	=33	=33	=33	=33	=33	=33	=33
2G#	.	2B	.	2g#	.	2b	.	130
2r	.	2r	.	2r	.	4.dd#	.	132
.	.	.	.	.	.	8dd#	.	133.5
=34	=34	=34	=34	=34	=34	=34	=34	=34
1r	.	1r	.	1r	.	4cc#	.	134
.	.	.	.	.	.	4b	.	135
.	.	.	.	.	.	4a#	.	136
.	.	.	.	.	.	8bL	.	137
.	.	.	.	.	.	8g#J	.	137.5
=35	=35	=35	=35	=35	=35	=35	=35	=35
*F#:	*	*F#:	*	*F#:	*	*F#:	*	*
2.BB	.	2.G#	.	2.c#	.	4f#	.	138
.	.	.	.	.	.	4e#X	.	139
.	.	.	.	.	.	8g#L	.	140
.	.	.	.	.	.	8e#J	.	140.5
4BB	.	4E#X	.	4c#	.	8d#L	.	141
.	.	.	.	.	.	8c#J	.	141.5
=36	=36	=36	=36	=36	=36	=36	=36	=36
4AA#	.	4F#	.	4c#	.	(2f#	.	142
4AA#	.	4c#	.	4e	.	.	.	143
4BB	.	4B	.	4d#	.	[2ff#)	.	144
4BB	.	4B	.	4dn	.	.	.	145
=37	=37	=37	=37	=37	=37	=37	=37	=37
2C#	.	(2A#	.	2c#	.	4ff#]	.	146
.	.	.	.	.	.	4f#	.	147
2C#	.	4.B)	.	2e#X	.	4.g#	.	148
.	.	8c#	.	.	.	8a#	.	149.5
=38	=38	=38	=38	=38	=38	=38	=38	=38
2.FF# 2.F#	.	(2B	.	(2e#X	.	(2g#	.	150
.	.	4A#)	.	4f#)	.	4f#)	.	152
4r	.	4r	.	4r	.	4r	.	153
=39	=39	=39	=39	=39	=39	=39	=39	=39
*B:	*	*B:	*	*B:	*	*B:	*	*
8B	pp	8B	pp	8dn	pp	8f#	pp	154
8B	.	8B	.	8d	.	8f#	.	154.5
!	!	!	!	!	!	!	!LO:DY:a	!
.	.	.	.	.	.	(8qan/	<	155
!	!LO:DY:a	!	!	!	!LO:DY:a	!	!	!
8B	<	8B	<	8d	<	8gn)	.	155
8B	.	8B	.	8d	.	8f#	.	155.5
4An	.	4An	.	4c#	.	4f#	.	156
4A	.	4A	.	4c#	.	4f#	.	157
=40	=40	=40	=40	=40	=40	=40	=40	=40
2Gn	[	2B	[	2e#X	[	2b	[	158
4F#	.	4c#	.	4f#	.	4a#	.	160
4r	.	4r	.	4r	.	4r	.	161
=41	=41	=41	=41	=41	=41	=41	=41	=41
8B	.	8B	.	8dn	.	8f#	.	162
8B	.	8B	.	8d	.	8f#	.	162.5
.	.	.	.	.	.	(8qan/	.	163
8B	.	8B	.	8d	.	8gn)	.	163
8B	.	8B	.	8d	.	8f#	.	163.5
*D:	*	*D:	*	*D:	*	*D:	*	*
4B-X	.	4dn	.	4gn	.	4dd#	.	164
4B-	.	4d	.	4g#X	.	4dd#	.	165
=42	=42	=42	=42	=42	=42	=42	=42	=42
2.An	.	(2f#	.	2.an	.	(2ddn	.	166
.	.	4e)	.	.	.	4cc#)	.	168
4r	.	4r	.	4r	.	4r	.	169
=43	=43	=43	=43	=43	=43	=43	=43	=43
8C#	.	8e	.	8gn	.	8an	.	170
8C#	.	8e	.	8g	.	8a	.	170.5
.	.	.	.	.	.	8qcc#/	.	171
8C#	.	8e	.	8g	.	8b	.	171
8C#	.	8e	.	8g	.	8a	.	171.5
4Dn	.	4An	.	4f#	.	4a	.	172
4D	.	4A	.	4f#	.	4a	.	173
=44	=44	=44	=44	=44	=44	=44	=44	=44
*f#:	*	*F#:	*	*F#:	*	*F#:	*	*
2BB	.	2dn	.	2g#	.	2ff#	.	174
4C#	.	4c#	.	4g#	.	4ee#X	.	176
8.B	.	8.c#	.	8.e#X	.	8.cc#	.	177
!LO:TX:b:i:t=cresc.	!	!LO:TX:b:i:t=cresc.	!	!LO:TX:b:i:t=cresc.	!	!LO:TX:b:i:t=cresc.	!	!
16B	.	16c#	.	16e#	.	16cc#	.	177.75
=45	=45	=45	=45	=45	=45	=45	=45	=45
4.An	.	4.c#	.	4.f#	.	4.ff#	.	178
8A	.	8c#	.	8f#	.	8cc#	.	179.5
4A	.	4c#	.	4f#	.	4cc#	.	180
*E:	*	*E:	*	*E:	*	*E:	*	*
4A	.	4cn	.	4f#	.	4dd#	.	181
=46	=46	=46	=46	=46	=46	=46	=46	=46
2G#	.	2B	.	2e	.	2ee	.	182
4r	p	4r	p	4r	p	4r	p	184
8.Gn	.	8.B	.	8.e	.	8.b	.	185
16G	.	16B	.	16e	.	16cc#	.	185.75
=47	=47	=47	=47	=47	=47	=47	=47	=47
4.F#	.	4.B	.	4.d#	.	4.dd#	.	186
8F#	.	8B	.	8d#	.	8cc#	.	187.5
4F#	.	4c#	.	4e	.	4b	.	188
4F#	.	4c#	.	4e	.	4a#	.	189
=48	=48	=48	=48	=48	=48	=48	=48	=48
2.BB	.	(2A#	.	(2e	.	(2cc#	.	190
.	.	4B)	.	4d#)	.	4b)	.	192
8.B	.	8.d#	.	8.f#	.	4r	.	193
16B	.	16e	.	16gn	.	.	.	193.75
=49	=49	=49	=49	=49	=49	=49	=49	=49
*B:	*	*B:	*	*B:	*	*B:	*	*
2.B	.	2.e	.	2.gn	.	4r	.	194
!	!	!	!	!	!	!LO:TX:b:i:t=cresc.	!	!
.	.	.	.	.	.	8.b	.	195
.	.	.	.	.	.	16ccn	.	195.75
.	.	.	.	.	.	4cc	.	196
8.B	.	8.e	.	8.g	.	4r	.	197
16B	.	16fn	.	16g#X	.	.	.	197.75
=50	=50	=50	=50	=50	=50	=50	=50	=50
2.B	.	2.fn	.	2.g#	.	4r	.	198
.	.	.	.	.	.	8.cc#	.	199
.	.	.	.	.	.	16ddn	.	199.75
.	.	.	.	.	.	4dd	.	200
8.B	f	8.f#X	f	8.an	f	8.dd#X	f	201
16E	.	16e	.	16g#	.	16ee	.	201.75
=51	=51	=51	=51	=51	=51	=51	=51	=51
4.E	.	4.e	.	4.g#	.	4.ee	.	202
8E	p	8e	p	8gn	p	8cc#	p	203.5
4F#	.	4d#	.	4f#	.	4b	.	204
4F#	.	4c#	.	4e	.	8a#L	.	205
.	.	.	.	.	.	8ff#J	.	205.5
=52	=52	=52	=52	=52	=52	=52	=52	=52
2.BB	.	(2A#	.	(2e	.	(2ff#	.	206
.	.	4B)	.	4d#)	.	4b)	.	208
4r	.	4r	.	4r	.	4r	.	209
==	==	==	==	==	==	==	==	==
*-	*-	*-	*-	*-	*-	*-	*-	*-
!!!system-decoration: ([s1,s2,s3,s4])
!!!EED: Imke Redecker